icons/hard-drive-line.svg

<svg xmlns="http://www.w3.org/2000/svg" width="24" height="24" fill="none"><g clip-path="url(#a)"><g><path fill="#121212" d="M5 10.938C6.76239 10.7154 8.40066 9.91287 9.65676 8.65676C10.9129 7.40066 11.7154 5.76239 11.938 4H5V10.938ZM5 12.951V20H19V4H13.95C13.7188 6.29498 12.7016 8.43955 11.0706 10.0706C9.43955 11.7016 7.29498 12.7188 5 12.95V12.951ZM4 2H20C20.2652 2 20.5196 2.10536 20.7071 2.29289C20.8946 2.48043 21 2.73478 21 3V21C21 21.2652 20.8946 21.5196 20.7071 21.7071C20.5196 21.8946 20.2652 22 20 22H4C3.73478 22 3.48043 21.8946 3.29289 21.7071C3.10536 21.5196 3 21.2652 3 21V3C3 2.73478 3.10536 2.48043 3.29289 2.29289C3.48043 2.10536 3.73478 2 4 2ZM15 16H17V18H15V16Z"/></g></g><defs><clipPath id="a"><rect width="24" height="24" fill="white"/></clipPath></defs></svg>

<svg width="24" height="24" fill="none" xmlns="http://www.w3.org/2000/svg"><g clip-path="url(#a)"><path d="M5 10.938A8.004 8.004 0 0 0 11.938 4H5v6.938Zm0 2.013V20h14V4h-5.05A10.003 10.003 0 0 1 5 12.95v.001ZM4 2h16a1 1 0 0 1 1 1v18a1 1 0 0 1-1 1H4a1 1 0 0 1-1-1V3a1 1 0 0 1 1-1Zm11 14h2v2h-2v-2Z" /></g><defs><clipPath id="a"><path fill="#fff" d="M0 0h24v24H0z"/></clipPath></defs></svg>
